X:1
T:Mors ovium
T:Daniel Friderici
T:Source : Bicinia sacra---Rostock---J.Richelius---1642. Editor : André Vierendeels (13/07/17).
T:Notes : Original clefs : C1, C1 Editorial accidentals above the staff
T:Mors ovium
T:©
T:©
T:©
C:Daniel Friderici
Z:©
%%score [ 1 2 ]
L:1/8
Q:1/4=120
M:2/2
K:C
V:1 treble nm="Soprano 1" snm="S 1"
V:2 treble nm="Soprano 2" snm="S 2"
V:1
 A8 | c6 BA | G2 A2 G2 E2 | F6 ED | C3 D E4- | E2 F2 E2 ^G2 | A6 B2 | c4 B2 A2 | ^G2 A2 B2 c2 | %9
w: Mors|o- * *||||* vi- um, mors|o- *|||
 B2 A2 G2 A2 | B2 c2 B3 B | A4 z2 c2 | B3 B c2 d2- | d2 d2 e2 B2 | edcB cBAG | AEAB c2 B2 | %16
w: |* * * vi-|um, mors|o- vi- um lu-|* pus est et|mun- * * * * * * *|* * * * * di,|
 z2 E2 edcB | cBAG AEGA | B2 B2 z2 ^G2 | A2 B2 c4 | B6 A2 | ^G6 A2 | B8 | E8 :: e8 | %25
w: et mun- * * *||* di, et|mu- di re-|gna pi-|o- *||rum,|heu,|
 z2 e3 d/c/ d2 | e3 d/c/ d3 c/B/ | c3 B/A/ B3 A/G/ | A4 E4 | z2 e3 d/c/ d2 | e3 d/c/ d3 c/B/ | %31
w: heu _ _ _|quan- * * * * *||* tum,|heu _ _ _|quan- * * * * *|
 c3 B/A/ B3 A/G/ | A4 E4 | z4 e4 | d2 e2 c2 A2 | B3 c d2 d2 | G4 z2 c2- | c2 B2 B4- | B2 A2 A4- | %39
w: |* tum,|heu,|quan- tum sa- cri|san- * * gui-|nis, il-|* la bi-||
 A2 ^G^F G4 | A8 :| %41
w: |bant|
V:2
 z8 | z8 | z8 | A8 | c6 BA |"^#""^#""^#" G2 A2 G2 E2 | F6 ED | C3 D E4- | E2 F2 E4 | ^G2 A2 B2 c2 | %10
w: |||Mors|o- * *||||* vi- um,|o- * * *|
 B2 A4 ^G2 | A4 A4 | ^G3 G A2 G2 |"^-natural" G2 F2 E4 | z2 e2 edcB |"^-natural" cBAG AEGA | %16
w: * * vi-|um, mors|o- vi- um lu-|* pus est,|et mun- * * *||
 B2 B2 z2 E2 | edcB cBAE | GFGA B2 BB | ^c2 d2 e4- |"^-natural" e2 d4 c2 | B4 E2 e2 | %22
w: * di, et|mun- * * * * * * *|* * * * * di, et|mun- di re-|* gna pi-|o- rum, pi-|
 d2 e3 d/c/ d2 | e8 :: c8- | c4 B3 A/G/ | A4 B2 e2 | e3 d/c/ d3 c/B/ | c3 B/A/ B3 A/G/ | A8 | %30
w: o- * * * *|rum,|heu,|_ quan- * *|* tum, heu|quan- * * * * *|||
 E4 z2 e2 | e3 d/c/ d3 c/B/ | c3 B/A/ B3 A/G/ | A4 E2 c2 | B2 G2 A2 F2 | G3 F/E/ F2 D2 | E4 g4 | %37
w: tum, heu|quan- * * * * *||* tum, heu|quan- tum sa- cri|san- * * * gui-|nis, il-|
 d8 | c6 BA | B8 | A8 :| %41
w: la|bi- * *||bant|

